public/assets/images/pill-bottle.svg

<svg enable-background="new 0 0 183 234" viewBox="0 0 183 234" xmlns="http://www.w3.org/2000/svg"><path d="m136.5 215h-95.8c-6.2 0-11.3-5.1-11.3-11.3v-156.9c0-3.5 2.8-6.3 6.3-6.3h105.9c3.5 0 6.3 2.8 6.3 6.3v156.9c0 6.2-5.1 11.3-11.4 11.3z" fill="#f3c74a"/><path d="m32.1 178h47.6c8.5 0 15.4-6.9 15.4-15.4v-84.3c0-8.5-6.9-15.4-15.4-15.4h-47.6c-2.1 0-3.8 1.9-3.8 4.2v106.8c0 2.2 1.7 4.1 3.8 4.1z" fill="#f8eec8"/><path d="m29.1 77.2v-32.1c0-3.5 2.8-6.3 6.3-6.3h105.9c3.5 0 6.3 2.8 6.3 6.3v11.4z" fill="#f3c74a" opacity=".67"/><path d="m156.7 50.3h-136.2c-2.4 0-4.4-2-4.4-4.4v-26c0-2.4 2-4.4 4.4-4.4h136.1c2.4 0 4.4 2 4.4 4.4v26c.1 2.4-1.9 4.4-4.3 4.4z" fill="#f8f6e8"/><g fill="#c0d5d0"><path d="m27.2 51.4v-22.7c0-.6-.5-1.2-1.2-1.2-.6 0-1.2.5-1.2 1.2v22.8c1.1-.1 1.7-.1 2.4-.1z"/><path d="m48.4 51.4v-22.7c0-.6-.5-1.2-1.2-1.2-.6 0-1.2.5-1.2 1.2v22.8c1.1-.1 1.8-.1 2.4-.1z"/><path d="m69.7 51.4v-22.7c0-.6-.5-1.2-1.2-1.2-.6 0-1.2.5-1.2 1.2v22.8c1.1-.1 1.7-.1 2.4-.1z"/><path d="m90.9 51.4v-22.7c0-.6-.5-1.2-1.2-1.2-.6 0-1.2.5-1.2 1.2v22.8c1.1-.1 1.7-.1 2.4-.1z"/><path d="m112.2 51.4v-22.7c0-.6-.5-1.2-1.2-1.2-.6 0-1.2.5-1.2 1.2v22.8c1.1-.1 1.7-.1 2.4-.1z"/><path d="m133.4 51.4v-22.7c0-.6-.5-1.2-1.2-1.2-.6 0-1.2.5-1.2 1.2v22.8c1.1-.1 1.8-.1 2.4-.1z"/><path d="m154.7 51.4v-22.7c0-.6-.5-1.2-1.2-1.2-.6 0-1.2.5-1.2 1.2v22.8c1.1-.1 1.7-.1 2.4-.1z"/></g><path d="m156.7 51.9h-136.2c-2.4 0-4.4-2-4.4-4.4v-8.2c0-.4.3-.7.7-.7h143.5c.4 0 .7.3.7.7v8.2c.1 2.5-1.9 4.4-4.3 4.4z" fill="#f8f6e8"/></svg>

<?xml version="1.0" encoding="utf-8"?>
<!-- Generator: Adobe Illustrator 21.1.0, SVG Export Plug-In . SVG Version: 6.00 Build 0)  -->
<svg version="1.1" id="Layer_1" xmlns="http://www.w3.org/2000/svg" xmlns:xlink="http://www.w3.org/1999/xlink" x="0px" y="0px"
	 viewBox="0 0 183 234" style="enable-background:new 0 0 183 234;" xml:space="preserve">
<style type="text/css">
	.st0{fill:#F3C74A;}
	.st1{fill:#F8EEC8;}
	.st2{opacity:0.67;fill:#F3C74A;}
	.st3{fill:#F8F6E8;}
	.st4{fill:#C0D5D0;}
</style>
<path class="st0" d="M136.5,215H40.7c-6.2,0-11.3-5.1-11.3-11.3V46.8c0-3.5,2.8-6.3,6.3-6.3h105.9c3.5,0,6.3,2.8,6.3,6.3v156.9
	C147.9,209.9,142.8,215,136.5,215z"/>
<path class="st1" d="M32.1,178h47.6c8.5,0,15.4-6.9,15.4-15.4V78.3c0-8.5-6.9-15.4-15.4-15.4l-47.6,0c-2.1,0-3.8,1.9-3.8,4.2v106.8
	C28.3,176.1,30,178,32.1,178z"/>
<path class="st2" d="M29.1,77.2V45.1c0-3.5,2.8-6.3,6.3-6.3h105.9c3.5,0,6.3,2.8,6.3,6.3v11.4L29.1,77.2z"/>
<path class="st3" d="M156.7,50.3H20.5c-2.4,0-4.4-2-4.4-4.4v-26c0-2.4,2-4.4,4.4-4.4h136.1c2.4,0,4.4,2,4.4,4.4v26
	C161.1,48.3,159.1,50.3,156.7,50.3z"/>
<g>
	<path class="st4" d="M27.2,51.4V28.7c0-0.6-0.5-1.2-1.2-1.2h0c-0.6,0-1.2,0.5-1.2,1.2v22.8C25.9,51.4,26.5,51.4,27.2,51.4z"/>
	<path class="st4" d="M48.4,51.4V28.7c0-0.6-0.5-1.2-1.2-1.2h0c-0.6,0-1.2,0.5-1.2,1.2v22.8C47.1,51.4,47.8,51.4,48.4,51.4z"/>
	<path class="st4" d="M69.7,51.4V28.7c0-0.6-0.5-1.2-1.2-1.2l0,0c-0.6,0-1.2,0.5-1.2,1.2v22.8C68.4,51.4,69,51.4,69.7,51.4z"/>
	<path class="st4" d="M90.9,51.4V28.7c0-0.6-0.5-1.2-1.2-1.2l0,0c-0.6,0-1.2,0.5-1.2,1.2v22.8C89.6,51.4,90.2,51.4,90.9,51.4z"/>
	<path class="st4" d="M112.2,51.4V28.7c0-0.6-0.5-1.2-1.2-1.2l0,0c-0.6,0-1.2,0.5-1.2,1.2v22.8C110.9,51.4,111.5,51.4,112.2,51.4z"
		/>
	<path class="st4" d="M133.4,51.4V28.7c0-0.6-0.5-1.2-1.2-1.2l0,0c-0.6,0-1.2,0.5-1.2,1.2v22.8C132.1,51.4,132.8,51.4,133.4,51.4z"
		/>
	<path class="st4" d="M154.7,51.4V28.7c0-0.6-0.5-1.2-1.2-1.2l0,0c-0.6,0-1.2,0.5-1.2,1.2v22.8C153.4,51.4,154,51.4,154.7,51.4z"/>
</g>
<path class="st3" d="M156.7,51.9H20.5c-2.4,0-4.4-2-4.4-4.4v-8.2c0-0.4,0.3-0.7,0.7-0.7h143.5c0.4,0,0.7,0.3,0.7,0.7v8.2
	C161.1,50,159.1,51.9,156.7,51.9z"/>
</svg>
